svg/logo/reddit_fill.svg

<?xml version="1.0" encoding="UTF-8"?>
<svg width="24px" height="24px" viewBox="0 0 24 24" version="1.1" xmlns="http://www.w3.org/2000/svg" xmlns:xlink="http://www.w3.org/1999/xlink">
    <title>reddit_fill</title>
    <g id="页面-1" stroke="none" stroke-width="1" fill="none" fill-rule="evenodd">
        <g id="Logo" transform="translate(-672.000000, -144.000000)" fill-rule="nonzero">
            <g id="reddit_fill" transform="translate(672.000000, 144.000000)">
                 <path d="M24,0 L24,24 L0,24 L0,0 L24,0 Z M12.5934901,23.257841 L12.5819402,23.2595131 L12.5108777,23.2950439 L12.4918791,23.2987469 L12.4918791,23.2987469 L12.4767152,23.2950439 L12.4056548,23.2595131 C12.3958229,23.2563662 12.3870493,23.2590235 12.3821421,23.2649074 L12.3780323,23.275831 L12.360941,23.7031097 L12.3658947,23.7234994 L12.3769048,23.7357139 L12.4804777,23.8096931 L12.4953491,23.8136134 L12.4953491,23.8136134 L12.5071152,23.8096931 L12.6106902,23.7357139 L12.6232938,23.7196733 L12.6232938,23.7196733 L12.6266527,23.7031097 L12.609561,23.275831 C12.6075724,23.2657013 12.6010112,23.2592993 12.5934901,23.257841 L12.5934901,23.257841 Z M12.8583906,23.1452862 L12.8445485,23.1473072 L12.6598443,23.2396597 L12.6498822,23.2499052 L12.6498822,23.2499052 L12.6471943,23.2611114 L12.6650943,23.6906389 L12.6699349,23.7034178 L12.6699349,23.7034178 L12.678386,23.7104931 L12.8793402,23.8032389 C12.8914285,23.8068999 12.9022333,23.8029875 12.9078286,23.7952264 L12.9118235,23.7811639 L12.8776777,23.1665331 C12.8752882,23.1545897 12.8674102,23.1470016 12.8583906,23.1452862 L12.8583906,23.1452862 Z M12.1430473,23.1473072 C12.1332178,23.1423925 12.1221763,23.1452606 12.1156365,23.1525954 L12.1099173,23.1665331 L12.0757714,23.7811639 C12.0751323,23.7926639 12.0828099,23.8018602 12.0926481,23.8045676 L12.108256,23.8032389 L12.3092106,23.7104931 L12.3186497,23.7024347 L12.3186497,23.7024347 L12.3225043,23.6906389 L12.340401,23.2611114 L12.337245,23.2485176 L12.337245,23.2485176 L12.3277531,23.2396597 L12.1430473,23.1473072 Z" id="MingCute" fill-rule="nonzero"></path>
                <path d="M12,2 C17.5228,2 22,6.47715 22,12 C22,17.5228 17.5228,22 12,22 C6.47715,22 2,17.5228 2,12 C2,6.47715 6.47715,2 12,2 Z M15,5.99999828 C14.7007,5.99999828 14.4321,6.1315 14.2488,6.33987 L12.5981,6.00971 C12.4633,5.98276 12.3234,6.01246 12.2112,6.09183 C12.099,6.1712 12.0245,6.29325 12.005,6.42929 L11.6366,9.00801 C10.2143,9.07084 8.89815,9.50089 7.891,10.2059 C7.69877,10.3405 7.51549,10.4871 7.34399,10.6449 C7.14887,10.552 6.93051,10.4999983 6.70001,10.4999983 C5.87159,10.4999983 5.20001,11.1716 5.20001,11.9999983 C5.20001,12.5773 5.52609,13.0784 6.0041,13.3291 L6,13.4999983 L6,13.4999983 C6,14.8824 6.80176,16.0316 7.891,16.7941 C8.98341,17.5588 10.4393,17.9999983 12,17.9999983 C13.5607,17.9999983 15.0166,17.5588 16.109,16.7941 C17.1982,16.0316 18,14.8824 18,13.4999983 L17.9959,13.3291 L17.9959,13.3291 C18.4739,13.0784 18.8,12.5773 18.8,11.9999983 C18.8,11.1716 18.1284,10.4999983 17.3,10.4999983 C17.0695,10.4999983 16.8511,10.552 16.656,10.6449 C16.4845,10.4871 16.3012,10.3405 16.109,10.2059 C15.1685,9.54755 13.9586,9.12897 12.6443,9.02528 L12.9202,7.09395 L14.0524,7.32039 C14.186,7.71554 14.5598,7.99999828 15,7.99999828 C15.5523,7.99999828 16,7.55229 16,6.99999828 C16,6.44772 15.5523,5.99999828 15,5.99999828 Z M9.5,12 C10.3284,12 11,12.6716 11,13.5 C11,14.3284 10.3284,15 9.5,15 C8.67157,15 8,14.3284 8,13.5 C8,12.6716 8.67157,12 9.5,12 Z M14.5,12 C15.3284,12 16,12.6716 16,13.5 C16,14.3284 15.3284,15 14.5,15 C13.6716,15 13,14.3284 13,13.5 C13,12.6716 13.6716,12 14.5,12 Z" id="形状" fill="#09244B"></path>
            </g>
        </g>
    </g>
</svg>

<svg xmlns="http://www.w3.org/2000/svg" width="24" height="24"><g fill="none" fill-rule="nonzero"><path d="M24 0v24H0V0h24ZM12.593 23.258l-.011.002-.071.035-.02.004-.014-.004-.071-.035c-.01-.004-.019-.001-.024.005l-.004.01-.017.428.005.02.01.013.104.074.015.004.012-.004.104-.074.012-.016.004-.017-.017-.427c-.002-.01-.009-.017-.017-.018Zm.265-.113-.013.002-.185.093-.01.01-.003.011.018.43.005.012.008.007.201.093c.012.004.023 0 .029-.008l.004-.014-.034-.614c-.003-.012-.01-.02-.02-.022Zm-.715.002a.023.023 0 0 0-.027.006l-.006.014-.034.614c0 .012.007.02.017.024l.015-.002.201-.093.01-.008.004-.011.017-.43-.003-.012-.01-.01-.184-.092Z"/><path fill="#09244B" d="M12 2c5.523 0 10 4.477 10 10s-4.477 10-10 10S2 17.523 2 12 6.477 2 12 2Zm3 4c-.3 0-.568.131-.751.34l-1.65-.33a.5.5 0 0 0-.594.42l-.368 2.578c-1.423.063-2.739.493-3.746 1.198a5.284 5.284 0 0 0-.547.439 1.5 1.5 0 0 0-1.34 2.684L6 13.5c0 1.382.802 2.532 1.891 3.294C8.983 17.56 10.439 18 12 18c1.56 0 3.017-.441 4.109-1.206C17.199 16.032 18 14.882 18 13.5l-.004-.17a1.5 1.5 0 0 0-1.34-2.685 5.287 5.287 0 0 0-.547-.44c-.94-.657-2.15-1.076-3.465-1.18l.276-1.931 1.132.226A1 1 0 1 0 15 6Zm-5.5 6a1.5 1.5 0 1 1 0 3 1.5 1.5 0 0 1 0-3Zm5 0a1.5 1.5 0 1 1 0 3 1.5 1.5 0 0 1 0-3Z"/></g></svg>
